X: 100270
M: C|
L: 1/8
K: Bb
(uFE) |\
(3DFB, (3EGB (3AcF (3Bdf | GBcd efg=E | (3Ff=e (3fdB (3F_ed (3ecA | (3BdD (3EGA, B,2 :|
|: (dc) |\
(3bfe (3dcB (3gec (3fdB | (3ecA (3FAc (3dBb (3fdB | (3Ggf (3edc (3BAG (3FGA | (3Bdf (3bfd B2 :|


